X: 20303
M: C
L: 1/16
K: A
E2 |\
(EA3) (EA3) F3A E3c | d3BcA3 FB3B2c2 |\
c2 |\
d3(fc3B) A3BA3c | d3BcA3 FB3B3c |
d3(fc2B2) A2c2e2d2 | ce2B3d cA3A2g2 |\
(a3e)(f3d) e3cAc3 | d3BcA3 FB3Bc3 |\


